src/assets/icons/weeks,simple,47.svg

<svg width="48" height="48" viewBox="0 0 48 48" fill="none" xmlns="http://www.w3.org/2000/svg">
<g clip-path="url(#clip0_20:206)">
<rect opacity="0.2" x="5" y="5" width="38" height="38" rx="4" fill="black"/>
<path d="M5 13C5 9.22876 5 7.34315 6.17157 6.17157C7.34315 5 9.22876 5 13 5H35C38.7712 5 40.6569 5 41.8284 6.17157C43 7.34315 43 9.22876 43 13V15H5V13Z" fill="black"/>
<path d="M9.64666 34.9318H18.0245V38H21.5529V34.9318H23.7177V31.9744H21.5529V20.5455H16.9336L9.64666 32.0256V34.9318ZM18.0927 31.9744H13.3626V31.8381L17.9563 24.5682H18.0927V31.9744ZM26.8668 38H30.6765L37.9208 23.6051V20.5455H25.6737V23.5625H34.1026V23.6818L26.8668 38ZM18.9684 67H22.7781L30.0224 52.6051V49.5455H17.7752V52.5625H26.2042V52.6818L18.9684 67Z" fill="black"/>
</g>
<defs>
<clipPath id="clip0_20:206">
<rect width="48" height="48" fill="white"/>
</clipPath>
</defs>
</svg>

<svg xmlns="http://www.w3.org/2000/svg" width="48" height="48" fill="none" viewBox="0 0 48 48">
  <g clip-path="url(#clip0_20:206)">
    <rect width="38" height="38" x="5" y="5" fill="#000" opacity=".2" rx="4"/>
    <path fill="#000" d="M5 13c0-3.771 0-5.657 1.172-6.828C7.343 5 9.229 5 13 5h22c3.771 0 5.657 0 6.828 1.172C43 7.343 43 9.229 43 13v2H5v-2zM9.647 34.932h8.377V38h3.529v-3.068h2.165v-2.958h-2.165V20.546h-4.62l-7.286 11.48v2.906zm8.446-2.958h-4.73v-.136l4.593-7.27h.137v7.406zM26.867 38h3.81l7.244-14.395v-3.06H25.674v3.017h8.429v.12L26.867 38zm-7.899 29h3.81l7.244-14.395v-3.06H17.775v3.017h8.43v.12L18.967 67z"/>
  </g>
  <defs>
    <clipPath id="clip0_20:206">
      <path fill="#fff" d="M0 0h48v48H0z"/>
    </clipPath>
  </defs>
</svg>
